src/components/Footer/images/logo-14.svg

<svg xmlns="http://www.w3.org/2000/svg" width="470" height="262" fill="none"><g fill="#2C2C2C" clip-path="url(#a)"><path d="m356.02 107.771-8.345 13.54h12.676v33.38h15.556v-33.38h14.288v-13.54H356.02Zm-46.469 0v46.92h15.841v-14.477h16.115v-13.137h-16.115v-5.768h16.752l8.464-13.538h-41.057Zm-21.99 46.92h16.129v-46.92h-16.129v46.92Zm-20.031-46.92-3.386 25.075-6.076-25.075h-12.865l-6.078 25.075-3.376-25.075h-15.637l7.72 46.92h17.254l6.551-21.067 6.552 21.067h17.256l7.716-46.92H267.53Zm-87.383 0v13.542h13.517l-14.607 23.494v9.884h38.88v-13.539h-18.59l20.765-33.381h-39.965ZM133.701 143.262h-8.103l29.215-48.123H89.937C83.343 95.139 78 100.526 78 107.17c0 6.645 5.345 12.03 11.937 12.03h8.065l-18.279 30.109S78 151.841 78 155.49c0 6.536 5.257 11.833 11.74 11.833h43.961c6.594 0 11.937-5.387 11.937-12.031 0-6.643-5.343-12.03-11.937-12.03Z"/></g><defs><clipPath id="a"><path fill="#fff" d="M78 95h314v72.462H78z"/></clipPath></defs></svg>

<svg width="470" height="262" viewBox="0 0 470 262" fill="none" xmlns="http://www.w3.org/2000/svg">
<g clip-path="url(#clip0_1_563)">
<path d="M356.02 107.771L347.675 121.311H360.351V154.691H375.907V121.311H390.195V107.771H356.02ZM309.551 107.771V154.691H325.392V140.214H341.507V127.077H325.392V121.309H342.144L350.608 107.771H309.553H309.551ZM287.561 154.691H303.69V107.771H287.561V154.691ZM267.53 107.771L264.144 132.846L258.068 107.771H245.203L239.125 132.846L235.749 107.771H220.112L227.832 154.691H245.086L251.637 133.624L258.189 154.691H275.445L283.161 107.771H267.53ZM180.147 107.771V121.313H193.664L179.057 144.807V154.691H217.937V141.152H199.347L220.112 107.771H180.149H180.147Z" fill="white"/>
<path d="M133.701 143.262H125.598L154.813 95.1389H89.9374C83.3434 95.1389 78 100.526 78 107.17C78 113.815 83.3452 119.2 89.9374 119.2H98.0022L79.7234 149.309C79.7234 149.309 78 151.841 78 155.49C78 162.026 83.2568 167.323 89.7407 167.323H133.701C140.295 167.323 145.638 161.936 145.638 155.292C145.638 148.649 140.295 143.262 133.701 143.262Z" fill="white"/>
</g>
<defs>
<clipPath id="clip0_1_563">
<rect width="314" height="72.4615" fill="white" transform="translate(78 95)"/>
</clipPath>
</defs>
</svg>
